app/images/icon/telegram.svg

<svg width="49" height="49" viewBox="0 0 49 49" fill="none" xmlns="http://www.w3.org/2000/svg">
<path d="M24.5 0C10.976 0 0 10.976 0 24.5C0 38.024 10.976 49 24.5 49C38.024 49 49 38.024 49 24.5C49 10.976 38.024 0 24.5 0ZM35.868 16.66C35.5005 20.531 33.908 29.939 33.0995 34.2755C32.7565 36.113 32.0705 36.7255 31.4335 36.799C30.0125 36.9215 28.9345 35.868 27.5625 34.9615C25.4065 33.5405 24.1815 32.6585 22.099 31.2865C19.6735 29.694 21.2415 28.812 22.638 27.391C23.0055 27.0235 29.2775 21.315 29.4 20.8005C29.417 20.7226 29.4148 20.6417 29.3934 20.5648C29.3721 20.488 29.3323 20.4175 29.2775 20.3595C29.1305 20.237 28.9345 20.286 28.763 20.3105C28.5425 20.3595 25.1125 22.638 18.424 27.146C17.444 27.8075 16.562 28.1505 15.778 28.126C14.896 28.1015 13.23 27.636 11.9805 27.2195C10.437 26.7295 9.2365 26.46 9.3345 25.6025C9.3835 25.1615 9.996 24.7205 11.1475 24.255C18.3015 21.1435 23.0545 19.0855 25.431 18.1055C32.242 15.2635 33.6385 14.7735 34.5695 14.7735C34.7655 14.7735 35.231 14.8225 35.525 15.0675C35.77 15.2635 35.8435 15.533 35.868 15.729C35.8435 15.876 35.8925 16.317 35.868 16.66Z" fill="#33D5BE"/>
</svg>

<svg width="49" height="49" fill="none" xmlns="http://www.w3.org/2000/svg">
    <path d="M24.5 0C10.976 0 0 10.976 0 24.5S10.976 49 24.5 49 49 38.024 49 24.5 38.024 0 24.5 0Zm11.368 16.66c-.367 3.871-1.96 13.279-2.769 17.616-.342 1.837-1.028 2.45-1.665 2.523-1.422.123-2.5-.931-3.872-1.837-2.155-1.422-3.38-2.304-5.463-3.676-2.425-1.592-.858-2.474.539-3.895.367-.367 6.64-6.076 6.762-6.59a.49.49 0 0 0-.122-.441c-.147-.123-.343-.074-.515-.05-.22.05-3.65 2.328-10.339 6.836-.98.662-1.862 1.005-2.646.98-.882-.024-2.548-.49-3.798-.907-1.543-.49-2.744-.759-2.646-1.617.05-.44.662-.881 1.814-1.347 7.154-3.111 11.907-5.17 14.283-6.15 6.811-2.841 8.207-3.332 9.138-3.332.197 0 .662.05.956.295.245.196.319.465.343.661-.025.147.024.588 0 .931Z" fill="#33D5BE"/>
</svg>
